src/images/about/right-icon.svg

<svg fill="none" height="40" viewBox="0 0 40 40" width="40" xmlns="http://www.w3.org/2000/svg"><path clip-rule="evenodd" d="m4 19.9998c0-8.8366 7.1634-16.00004 16-16.00004s16 7.16344 16 16.00004c0 8.8365-7.1634 16-16 16s-16-7.1635-16-16zm21.7071-2.6261c.3905-.3905.3905-1.0237 0-1.4142s-1.0237-.3905-1.4142 0l-5.9596 5.9596-2.6262-2.6262c-.3905-.3906-1.0237-.3906-1.4142 0-.3905.3905-.3905 1.0236 0 1.4142l3.3333 3.3333c.3906.3905 1.0237.3905 1.4142 0z" fill="#37c087" fill-rule="evenodd"/></svg>

<svg width="40" height="40" viewBox="0 0 40 40" fill="none" xmlns="http://www.w3.org/2000/svg">
<g id="Icon Frame">
<path id="Subtract" fill-rule="evenodd" clip-rule="evenodd" d="M4 19.9998C4 11.1632 11.1634 3.99976 20 3.99976C28.8366 3.99976 36 11.1632 36 19.9998C36 28.8363 28.8366 35.9998 20 35.9998C11.1634 35.9998 4 28.8363 4 19.9998ZM25.7071 17.3737C26.0976 16.9832 26.0976 16.35 25.7071 15.9595C25.3166 15.569 24.6834 15.569 24.2929 15.9595L18.3333 21.9191L15.7071 19.2929C15.3166 18.9023 14.6834 18.9023 14.2929 19.2929C13.9024 19.6834 13.9024 20.3165 14.2929 20.7071L17.6262 24.0404C18.0168 24.4309 18.6499 24.4309 19.0404 24.0404L25.7071 17.3737Z" fill="#37C087"/>
</g>
</svg>
